img/auth-vkcom.svg

<svg width="26" height="25" viewBox="0 0 26 25" fill="none" xmlns="http://www.w3.org/2000/svg">
<path d="M0.959961 12.48C0.959961 5.58749 6.54745 0 13.44 0C20.3325 0 25.92 5.58749 25.92 12.48C25.92 19.3725 20.3325 24.96 13.44 24.96C6.54745 24.96 0.959961 19.3725 0.959961 12.48Z" fill="#4C6C91"/>
<path d="M14.0928 16.5755C14.0928 16.5755 14.333 16.5493 14.4561 16.4196C14.5687 16.3007 14.5648 16.0764 14.5648 16.0764C14.5648 16.0764 14.5498 15.0289 15.0453 14.8742C15.5336 14.7221 16.1606 15.8872 16.8261 16.3352C17.3287 16.674 17.7102 16.5998 17.7102 16.5998L19.4884 16.5755C19.4884 16.5755 20.4181 16.5193 19.9773 15.8016C19.9409 15.7428 19.7202 15.2705 18.6556 14.3003C17.5403 13.2848 17.6901 13.449 19.0326 11.6921C19.8504 10.6222 20.1772 9.96908 20.075 9.68979C19.978 9.42264 19.3764 9.49358 19.3764 9.49358L17.3749 9.50573C17.3749 9.50573 17.2265 9.48591 17.1164 9.55046C17.009 9.61373 16.9393 9.76137 16.9393 9.76137C16.9393 9.76137 16.6229 10.589 16.2004 11.2933C15.309 12.7786 14.9529 12.8572 14.807 12.7652C14.4678 12.5498 14.5524 11.9011 14.5524 11.4403C14.5524 10.0004 14.7751 9.40027 14.1195 9.24497C13.902 9.1932 13.7418 9.15933 13.1852 9.15358C12.4709 9.14655 11.8667 9.15613 11.5242 9.32038C11.2963 9.42967 11.1205 9.67381 11.228 9.68787C11.3602 9.70513 11.6597 9.76712 11.8185 9.9793C12.0236 10.2535 12.0164 10.8683 12.0164 10.8683C12.0164 10.8683 12.1343 12.5632 11.741 12.7735C11.4715 12.9179 11.1017 12.6233 10.3067 11.2754C9.89975 10.5852 9.59244 9.82208 9.59244 9.82208C9.59244 9.82208 9.53319 9.67956 9.42706 9.60287C9.2988 9.5102 9.11975 9.48144 9.11975 9.48144L7.21791 9.49358C7.21791 9.49358 6.93208 9.50125 6.82726 9.62332C6.73415 9.73133 6.8201 9.95566 6.8201 9.95566C6.8201 9.95566 8.30914 13.3755 9.99546 15.0992C11.5418 16.6791 13.2971 16.5755 13.2971 16.5755H14.0928Z" fill="white"/>
</svg>

<svg width="26" height="25" fill="none" xmlns="http://www.w3.org/2000/svg"><path d="M.96 12.48C.96 5.587 6.547 0 13.44 0c6.893 0 12.48 5.587 12.48 12.48 0 6.892-5.588 12.48-12.48 12.48C6.547 24.96.96 19.372.96 12.48Z" fill="#4C6C91"/><path d="M14.093 16.576s.24-.027.363-.156c.113-.12.109-.344.109-.344s-.015-1.047.48-1.202c.489-.152 1.116 1.013 1.781 1.461.503.339.884.265.884.265l1.778-.024s.93-.057.49-.774c-.037-.06-.258-.531-1.322-1.502-1.116-1.015-.966-.851.377-2.608.817-1.07 1.144-1.723 1.042-2.002-.097-.267-.699-.196-.699-.196l-2.001.012s-.148-.02-.259.044c-.107.064-.177.211-.177.211s-.316.828-.739 1.532c-.891 1.486-1.247 1.564-1.393 1.472-.34-.215-.255-.864-.255-1.325 0-1.44.223-2.04-.432-2.195-.218-.052-.378-.086-.935-.091-.714-.007-1.318.002-1.66.166-.229.11-.405.354-.297.368.132.017.432.08.59.291.206.275.198.89.198.89s.118 1.694-.275 1.905c-.27.144-.64-.15-1.434-1.499-.407-.69-.715-1.453-.715-1.453s-.059-.142-.165-.22a.828.828 0 0 0-.307-.12l-1.902.012s-.286.007-.39.13c-.094.107-.008.332-.008.332s1.49 3.42 3.175 5.143c1.547 1.58 3.302 1.477 3.302 1.477h.796Z" fill="#fff"/></svg>
